packages/core/src/svgs/tokens/mono/NTX.svg

<svg width="24" height="24" viewBox="0 0 24 24" fill="none" xmlns="http://www.w3.org/2000/svg">
<path fill-rule="evenodd" clip-rule="evenodd" d="M6.89065 7.38312C7.64498 8.18317 9.1708 9.80046 9.1936 9.84046L8.91934 10.1833L5.8906 8.81178L3.10186 8.66319C2.98535 8.65587 2.87299 8.61711 2.77676 8.55103C2.68053 8.48493 2.60402 8.39399 2.55535 8.28788C2.50669 8.18177 2.48771 8.06444 2.50043 7.94839C2.51313 7.83235 2.55707 7.72191 2.62755 7.62884L4.6791 4.90298C4.96482 4.5201 5.55343 4.57724 5.76487 5.01726L6.89065 7.38312ZM5.64486 8.09174C5.02445 8.02672 4.40527 7.95051 3.78762 7.86315C3.75787 7.859 3.72931 7.84875 3.70374 7.833C3.67816 7.81727 3.65613 7.7964 3.63904 7.77172C3.60589 7.72361 3.58862 7.66634 3.58965 7.60793C3.59068 7.54952 3.60994 7.4929 3.64475 7.44598L4.62195 6.1659C4.67026 6.09947 4.735 6.04672 4.80983 6.01283C4.88464 5.97893 4.967 5.96505 5.04879 5.97253C5.13059 5.98003 5.20905 6.00863 5.27647 6.05555C5.3439 6.10247 5.39798 6.16609 5.43342 6.2402L6.05633 7.46883C6.11346 7.58313 6.11346 7.73171 6.05633 7.85172C6.0201 7.92991 5.96053 7.99497 5.88584 8.03795C5.81114 8.08092 5.72496 8.09971 5.63915 8.09174H5.64486ZM4.23335 7.52027L5.30771 7.64599C5.41057 7.65742 5.502 7.60028 5.54772 7.50884C5.56578 7.47345 5.57519 7.43428 5.57519 7.39455C5.57519 7.35481 5.56578 7.31565 5.54772 7.28026L5.18198 6.57165C5.16077 6.53035 5.12943 6.49511 5.09088 6.46923C5.05233 6.44335 5.00785 6.42768 4.9616 6.42368C4.91534 6.41968 4.86883 6.42749 4.82641 6.44637C4.78401 6.46525 4.74708 6.49459 4.7191 6.53165L4.14764 7.27454C4.12767 7.30193 4.11691 7.33494 4.11691 7.36883C4.11691 7.40272 4.12767 7.43574 4.14764 7.46312C4.16478 7.4917 4.19907 7.50883 4.23335 7.52027Z" fill="white"/>
<path d="M3.7823 14.7437C3.87946 14.6294 4.16518 14.2694 4.36519 14.0008C4.38919 13.9708 4.40457 13.9348 4.40966 13.8967C4.41475 13.8587 4.40937 13.8199 4.3941 13.7846C4.37882 13.7494 4.35422 13.719 4.32295 13.6966C4.29168 13.6743 4.25492 13.661 4.21662 13.6579L3.53086 13.6008C3.48993 13.5976 3.44887 13.6051 3.41162 13.6223C3.37436 13.6395 3.34216 13.666 3.31808 13.6994C3.294 13.7326 3.27885 13.7714 3.27409 13.8122C3.26931 13.853 3.27509 13.8943 3.29085 13.9322L3.57086 14.6865C3.59372 14.7437 3.64515 14.778 3.7023 14.778C3.73659 14.778 3.75945 14.7609 3.7823 14.738V14.7437Z" fill="white"/>
<path fill-rule="evenodd" clip-rule="evenodd" d="M4.89632 12.7091C5.8278 12.5148 8.66797 11.6233 8.71368 11.6233L8.83368 11.9833L5.47921 14.0977L4.10198 16.0978C4.04587 16.1821 3.96751 16.2493 3.87558 16.2918C3.78367 16.3344 3.68177 16.3505 3.58118 16.3388C3.48059 16.3269 3.38525 16.2874 3.3057 16.2248C3.22615 16.1621 3.16552 16.0786 3.1305 15.9835L2.09044 13.2176C2.05536 13.1287 2.04387 13.0323 2.05708 12.9376C2.07029 12.843 2.10776 12.7534 2.16585 12.6774C2.22393 12.6015 2.30065 12.5419 2.38858 12.5044C2.4765 12.4668 2.57263 12.4527 2.66762 12.4633L4.89632 12.7091ZM4.83917 13.9549C4.4963 14.4177 3.99913 15.035 3.8334 15.2292C3.81686 15.2499 3.79603 15.2667 3.77235 15.2786C3.74868 15.2904 3.72271 15.297 3.69625 15.2978C3.64673 15.2995 3.59793 15.2855 3.55685 15.2578C3.51578 15.2302 3.48455 15.19 3.46767 15.1435L2.98192 13.8292C2.9578 13.7635 2.95053 13.693 2.96077 13.6239C2.971 13.5549 2.99843 13.4894 3.04051 13.4337C3.08261 13.3779 3.13801 13.3337 3.20165 13.305C3.26531 13.2762 3.33515 13.2638 3.4048 13.2691L4.58201 13.3662C4.64799 13.371 4.71143 13.3935 4.7656 13.4315C4.81976 13.4695 4.8626 13.5215 4.88958 13.5819C4.91655 13.6423 4.92664 13.7089 4.91878 13.7745C4.9109 13.8402 4.88536 13.9025 4.84488 13.9549H4.83917Z" fill="white"/>
<path d="M19.5655 11.8178C19.4455 11.8578 19.0797 11.9893 18.8169 12.0921C18.7873 12.1045 18.7614 12.1245 18.7419 12.1501C18.7225 12.1757 18.7101 12.2058 18.7061 12.2377C18.7019 12.2696 18.7065 12.302 18.7189 12.3316C18.7313 12.3612 18.7513 12.387 18.7769 12.4064L19.2397 12.7493C19.3597 12.8464 19.5369 12.7779 19.5655 12.6293L19.6969 11.955C19.7024 11.9306 19.6997 11.9051 19.6895 11.8825C19.6792 11.8598 19.6617 11.8411 19.6397 11.8293C19.6289 11.8222 19.6167 11.8175 19.6039 11.8155C19.5911 11.8135 19.578 11.8143 19.5655 11.8178Z" fill="white"/>
<path fill-rule="evenodd" clip-rule="evenodd" d="M17.8623 12.7836C17.1079 12.5093 12.3363 11.4635 12.3076 11.4407L12.3763 11.1263L18.0566 11.515L19.931 10.692C20.0098 10.6577 20.0966 10.6457 20.1818 10.6574C20.2669 10.6691 20.3473 10.704 20.414 10.7583C20.4806 10.8125 20.531 10.8841 20.5598 10.9652C20.5885 11.0463 20.5944 11.1336 20.5768 11.2177L20.1195 13.6808C20.1057 13.761 20.071 13.8362 20.0191 13.899C19.9673 13.9618 19.9001 14.0099 19.8239 14.0387C19.7478 14.0675 19.6654 14.076 19.585 14.0634C19.5046 14.0507 19.4288 14.0174 19.3652 13.9664L17.8623 12.7836ZM18.4509 11.9093L19.7424 11.4407C19.7634 11.4344 19.7854 11.4327 19.8071 11.4356C19.8287 11.4387 19.8495 11.4462 19.8681 11.4578C19.9425 11.4978 19.9825 11.5835 19.971 11.675L19.7424 12.835C19.732 12.8938 19.7067 12.9492 19.6688 12.9955C19.631 13.0417 19.5819 13.0775 19.5262 13.0992C19.4706 13.1211 19.4102 13.1281 19.351 13.12C19.2918 13.1117 19.2356 13.0884 19.188 13.0521L18.3824 12.4521C18.3377 12.4189 18.3026 12.3743 18.2809 12.3231C18.259 12.2719 18.2513 12.2159 18.2582 12.1607C18.2652 12.1054 18.2868 12.0531 18.3206 12.0089C18.3544 11.9647 18.3994 11.9303 18.4509 11.9093Z" fill="white"/>
<path fill-rule="evenodd" clip-rule="evenodd" d="M12.5488 8.3376C12.6589 8.21382 12.7409 8.06759 12.7888 7.909C12.8003 7.85757 12.806 7.81187 12.806 7.76042V6.01747C12.806 5.7946 12.886 5.58316 13.046 5.42886L13.6461 4.99456C13.7833 4.86312 13.9546 4.86883 14.1433 4.86883H15.4576C15.6119 4.86312 15.7604 4.8574 15.8804 4.96027L16.5377 5.52601C16.709 5.6746 16.812 5.89746 16.812 6.12605V7.74329C16.812 7.85757 16.789 7.97188 16.7434 8.06901C16.6634 8.2576 16.4862 8.37761 16.309 8.48619L16.1434 8.60047C16.029 8.6862 15.9147 8.77192 15.7834 8.81192C15.6862 8.84621 15.5719 8.86335 15.4576 8.85763H14.2518C14.1146 8.85763 13.9775 8.86335 13.8518 8.93193L11.8402 10.1892L11.4517 9.75487L12.5488 8.3376ZM13.3775 6.11462C13.3775 5.73745 13.6861 5.42886 14.0633 5.42886H15.549C15.9262 5.42886 16.2347 5.73745 16.2347 6.11462V7.60041C16.2347 7.97758 15.9262 8.28617 15.549 8.28617H14.0633C13.8814 8.28617 13.707 8.21393 13.5783 8.08532C13.4498 7.95672 13.3775 7.78229 13.3775 7.60041V6.11462ZM15.6634 6.85752C15.6634 7.08486 15.573 7.30289 15.4123 7.46365C15.2515 7.6244 15.0335 7.71471 14.8061 7.71471C14.5788 7.71471 14.3608 7.6244 14.2 7.46365C14.0393 7.30289 13.9489 7.08486 13.9489 6.85752C13.9489 6.63018 14.0393 6.41215 14.2 6.25139C14.3608 6.09063 14.5788 6.00032 14.8061 6.00032C15.0335 6.00032 15.2515 6.09063 15.4123 6.25139C15.573 6.41215 15.6634 6.63018 15.6634 6.85752Z" fill="white"/>
<path fill-rule="evenodd" clip-rule="evenodd" d="M7.94778 15.6462C7.85063 15.8062 7.75348 15.9777 7.7649 16.1606L7.77062 16.2006L7.97634 17.5778C7.99921 17.755 7.95349 17.9321 7.84491 18.075L7.53633 18.475C7.43346 18.6064 7.28488 18.6921 7.12487 18.7151L5.97052 18.8864C5.82386 18.9087 5.67408 18.8783 5.54764 18.8008L4.95903 18.4293C4.88211 18.38 4.81676 18.3146 4.76744 18.2377C4.71813 18.1608 4.68601 18.0741 4.6733 17.9836L4.48471 16.7035C4.46186 16.532 4.50186 16.3607 4.61044 16.2177L4.96474 15.7434C5.06761 15.6006 5.22762 15.5149 5.39906 15.4919L6.37054 15.3777C6.3934 15.3777 6.41627 15.3777 6.44483 15.3662C6.60484 15.3262 6.72484 15.2062 6.83914 15.0862L9.54781 12.3032L9.79355 12.4975L7.94206 15.6462H7.94778ZM7.37632 17.5321C7.39594 17.667 7.36121 17.8041 7.27977 17.9134C7.19834 18.0228 7.07685 18.0952 6.942 18.115L5.85623 18.2808C5.72139 18.2986 5.58495 18.2624 5.47678 18.1798C5.36862 18.0974 5.29752 17.9754 5.27905 17.8407L5.11332 16.7377C5.10279 16.6705 5.10571 16.6019 5.12188 16.5359C5.13807 16.4697 5.16719 16.4076 5.2076 16.3528C5.24798 16.298 5.29884 16.2519 5.35722 16.2169C5.41558 16.182 5.48031 16.1589 5.54764 16.1492L6.63341 15.9892C6.76739 15.9712 6.90307 16.0066 7.01107 16.088C7.11909 16.1692 7.19076 16.2897 7.21059 16.4235L7.37632 17.5263V17.5321ZM5.60478 17.2292C5.54764 16.8692 5.79908 16.5435 6.14768 16.4863C6.23286 16.474 6.31963 16.4784 6.40306 16.4996C6.4865 16.5208 6.56494 16.5581 6.63393 16.6096C6.70291 16.6611 6.76109 16.7256 6.80511 16.7996C6.84916 16.8736 6.87819 16.9555 6.89057 17.0407C6.90296 17.1258 6.89844 17.2126 6.87728 17.296C6.85613 17.3795 6.81874 17.4579 6.76727 17.5269C6.7158 17.5959 6.65124 17.6541 6.57729 17.6981C6.50334 17.7421 6.42143 17.7711 6.33626 17.7835C5.98767 17.835 5.65622 17.5893 5.60478 17.2292Z" fill="white"/>
<path fill-rule="evenodd" clip-rule="evenodd" d="M9.91898 6.87467C10.1946 6.67647 10.3906 6.38661 10.472 6.05702C10.5533 5.72743 10.5146 5.37965 10.3627 5.076C10.211 4.77236 9.95605 4.53268 9.64363 4.39991C9.33122 4.26716 8.98168 4.24998 8.65774 4.3515C8.3338 4.45299 8.05658 4.66653 7.87577 4.95384C7.69495 5.24116 7.62236 5.58346 7.67099 5.91944C7.71962 6.25541 7.88629 6.56309 8.14115 6.78734C8.396 7.0116 8.72238 7.13776 9.06187 7.14326L9.89618 9.37192L10.3419 9.31485L9.91898 6.87467ZM9.0904 6.5718C9.31775 6.5718 9.53576 6.48148 9.69657 6.32073C9.85725 6.15997 9.94752 5.94195 9.94752 5.7146C9.94752 5.48725 9.85725 5.26923 9.69657 5.10847C9.53576 4.94772 9.31775 4.8574 9.0904 4.8574C8.86304 4.8574 8.64502 4.94772 8.48426 5.10847C8.32351 5.26923 8.23319 5.48725 8.23319 5.7146C8.23319 5.94195 8.32351 6.15997 8.48426 6.32073C8.64502 6.48148 8.86304 6.5718 9.0904 6.5718ZM9.6619 5.7146C9.6619 5.86616 9.60163 6.01151 9.49443 6.11869C9.38735 6.22586 9.24201 6.28606 9.0904 6.28606C8.93883 6.28606 8.79348 6.22586 8.6863 6.11869C8.57913 6.01151 8.51893 5.86616 8.51893 5.7146C8.51893 5.56305 8.57913 5.41769 8.6863 5.31051C8.79348 5.20334 8.93883 5.14314 9.0904 5.14314C9.24201 5.14314 9.38735 5.20334 9.49443 5.31051C9.60163 5.41769 9.6619 5.56305 9.6619 5.7146Z" fill="white"/>
<path fill-rule="evenodd" clip-rule="evenodd" d="M10.1082 14.0918C9.80475 14.2018 9.54287 14.4032 9.35859 14.6684C9.17432 14.9335 9.07698 15.2491 9.07964 15.5719C9.08271 15.9898 9.25085 16.3894 9.54727 16.6838C9.84382 16.9783 10.2448 17.1435 10.6627 17.1435C10.8684 17.1435 11.0723 17.1028 11.2623 17.0236C11.4523 16.9445 11.6249 16.8285 11.7698 16.6825C11.9149 16.5364 12.0295 16.363 12.1073 16.1725C12.185 15.9819 12.2242 15.7778 12.2228 15.5719C12.2228 14.8119 11.6798 14.1776 10.9655 14.029L10.8169 12.5947L10.3712 12.5317L10.1082 14.0918ZM10.6512 14.5719C10.0969 14.5719 9.65114 15.0233 9.65688 15.5719C9.65688 16.1262 10.114 16.572 10.6627 16.572C11.217 16.572 11.6627 16.1262 11.657 15.5719C11.657 15.0233 11.1998 14.5719 10.6512 14.5719ZM10.0569 15.5662C10.0569 15.4147 10.117 15.2694 10.2242 15.1622C10.3314 15.055 10.4768 14.9948 10.6283 14.9948C10.7799 14.9948 10.9252 15.055 11.0324 15.1622C11.1396 15.2694 11.1998 15.4147 11.1998 15.5662C11.1998 15.7178 11.1396 15.8631 11.0324 15.9703C10.9252 16.0775 10.7799 16.1377 10.6283 16.1377C10.4768 16.1377 10.3314 16.0775 10.2242 15.9703C10.117 15.8631 10.0569 15.7178 10.0569 15.5662Z" fill="white"/>
<path d="M12.2338 3.42864C12.2395 3.74295 11.9881 4.00011 11.6738 4.00011C11.3538 4.00011 11.1024 3.74295 11.0967 3.42864C11.0967 3.11434 11.348 2.85718 11.6624 2.85718C11.9767 2.85718 12.2338 3.11434 12.2338 3.42864Z" fill="white"/>
<path fill-rule="evenodd" clip-rule="evenodd" d="M12.1081 4.79444C12.3985 4.70368 12.652 4.52187 12.831 4.2759C13.0101 4.02994 13.1053 3.73287 13.1025 3.42864C13.0995 3.0487 12.9464 2.68533 12.6766 2.41773C12.4069 2.15013 12.0423 1.99999 11.6624 2C11.4754 1.99999 11.29 2.03702 11.1173 2.10895C10.9447 2.18089 10.788 2.28631 10.6563 2.41912C10.5245 2.55194 10.4202 2.70952 10.3497 2.88278C10.2792 3.05606 10.2437 3.24158 10.2452 3.42864C10.2452 4.04012 10.6395 4.56015 11.1824 4.76587L10.5194 9.57182L10.9537 9.69183L12.1195 4.79444H12.1081ZM11.6738 4.28584C12.1481 4.28584 12.531 3.90296 12.531 3.42864C12.5253 2.95433 12.131 2.57146 11.6624 2.57146C11.188 2.57146 10.8052 2.95433 10.8109 3.42864C10.8109 3.90296 11.2052 4.28584 11.6738 4.28584Z" fill="white"/>
<path d="M20.2345 16.8525C19.9202 16.8525 19.6631 16.5896 19.6631 16.2754C19.6631 15.9611 19.9202 15.7039 20.2345 15.7039C20.5487 15.7153 20.806 15.9724 20.806 16.2867C20.806 16.6011 20.5487 16.8582 20.2345 16.8525Z" fill="white"/>
<path fill-rule="evenodd" clip-rule="evenodd" d="M18.5195 16.2464C18.5195 16.7032 18.6994 17.1416 19.0202 17.4668C19.3412 17.7919 19.7772 17.9777 20.2339 17.9837C21.1826 17.9951 21.9482 17.2351 21.9482 16.2864C21.9469 15.8306 21.7662 15.3936 21.4455 15.0696C21.1249 14.7457 20.6898 14.5609 20.2339 14.5549C19.7825 14.5492 19.3768 14.7149 19.0681 14.995L12.1249 11.4861L11.8506 11.9433L18.5367 16.0463L18.5195 16.2521V16.2464ZM19.091 16.2636C19.091 16.8921 19.6053 17.4064 20.2339 17.4179C20.8626 17.4236 21.3769 16.9151 21.3769 16.2864C21.3769 15.6578 20.8626 15.1378 20.2339 15.132C19.6053 15.1263 19.091 15.6293 19.091 16.2636Z" fill="white"/>
<path d="M14.6404 17.8639C14.6289 17.9154 14.3376 18.544 14.0633 19.1212C13.9682 19.3191 13.9322 19.5403 13.9595 19.7582C13.9869 19.9761 14.0765 20.1814 14.2176 20.3498L15.2689 21.607C15.5147 21.8927 15.8977 22.0414 16.2747 21.9899L17.532 21.8184C17.9035 21.767 18.2178 21.5384 18.3891 21.2069L19.0978 19.7783C19.1936 19.5868 19.2337 19.3723 19.2136 19.1591C19.1933 18.9459 19.1136 18.7427 18.9836 18.5725L18.012 17.3324C17.8954 17.1807 17.7415 17.0615 17.5653 16.9864C17.3892 16.9114 17.1967 16.8828 17.0062 16.9039L15.9947 17.0239L11.6231 12.0808L11.4517 12.3664L14.6404 17.8639ZM18.2006 19.4068C18.2021 19.6192 18.1618 19.8299 18.0819 20.0266C18.002 20.2234 17.8842 20.4026 17.7351 20.5538C17.5859 20.705 17.4084 20.8255 17.2128 20.9081C17.0172 20.9908 16.8072 21.034 16.5948 21.0356C16.3825 21.0348 16.1723 20.9923 15.9763 20.9103C15.7804 20.8282 15.6026 20.7085 15.453 20.5578C15.3032 20.4072 15.1848 20.2285 15.1041 20.0319C15.0236 19.8354 14.9825 19.625 14.9833 19.4126C14.9817 19.1998 15.0223 18.9887 15.1025 18.7915C15.1828 18.5944 15.3012 18.415 15.4508 18.2637C15.6006 18.1124 15.7787 17.9921 15.975 17.9098C16.1713 17.8274 16.3819 17.7847 16.5948 17.7839C16.8072 17.7854 17.0172 17.8287 17.2128 17.9114C17.4084 17.9941 17.5859 18.1145 17.7351 18.2657C17.8842 18.4169 18.002 18.596 18.0819 18.7928C18.1618 18.9896 18.2021 19.2003 18.2006 19.4126V19.4068ZM17.4005 19.4068C17.4005 19.8641 17.0348 20.2241 16.5948 20.2241C16.149 20.2241 15.789 19.8583 15.789 19.4126C15.789 18.9555 16.149 18.5955 16.589 18.5955C17.0348 18.5955 17.3948 18.9612 17.3948 19.4126L17.4005 19.4068Z" fill="white"/>
<path d="M17.8002 9.86924C17.8687 9.93204 17.9544 10.012 18.0745 10.1435C18.2459 10.3321 18.5202 10.395 18.7602 10.3093L19.6632 9.98351C19.8688 9.90924 20.0288 9.73203 20.0803 9.51495L20.246 8.77772C20.2918 8.56628 20.2346 8.34342 20.0918 8.18341L19.4688 7.49765C19.2975 7.30336 19.0345 7.23478 18.7888 7.30906L17.9202 7.58337C17.7031 7.65766 17.5374 7.83481 17.4802 8.05768L17.3373 8.64058L12.0913 10.5435L12.2056 10.6978L17.6059 9.66923C17.6631 9.7435 17.7202 9.79497 17.8002 9.86924ZM18.806 8.00625C19.2803 8.00625 19.6632 8.39485 19.6632 8.86915C19.6632 9.34347 19.2803 9.7263 18.806 9.7263C18.3317 9.71496 17.9487 9.32627 17.9487 8.85773C17.9487 8.38342 18.3317 8.00054 18.806 8.00625ZM18.9202 8.36055C19.1603 8.452 19.2803 8.72629 19.1888 8.97203C19.1673 9.02994 19.1344 9.08306 19.0922 9.12813C19.0501 9.17333 18.9993 9.20973 18.943 9.2352C18.8868 9.26067 18.826 9.2748 18.7642 9.2768C18.7024 9.27867 18.6409 9.26827 18.5832 9.24627C18.4657 9.20147 18.3709 9.11199 18.3195 8.99733C18.2681 8.88269 18.2642 8.75233 18.3087 8.63486C18.3303 8.57695 18.3633 8.52387 18.4054 8.4787C18.4475 8.43353 18.4983 8.39714 18.5546 8.37164C18.6109 8.34615 18.6717 8.33204 18.7334 8.33014C18.7953 8.32824 18.8568 8.33858 18.9145 8.36055H18.9202Z" fill="white"/>
<path d="M4.7699 11.0689L5.51279 11.949C5.74138 12.2175 6.1414 12.2518 6.40999 12.029L7.21576 11.3432L8.87299 11.1604L8.93014 10.7032L7.29004 10.4004L6.54715 9.56032C6.32427 9.30884 5.94139 9.27457 5.67852 9.48591L4.85562 10.1431C4.56989 10.3717 4.52988 10.7947 4.7699 11.0689ZM5.32421 10.9889C5.26419 10.928 5.23054 10.8459 5.23054 10.7604C5.23054 10.6748 5.26419 10.5926 5.32421 10.5317L5.83853 10.0174C5.89824 9.95954 5.97819 9.927 6.0614 9.927C6.14462 9.927 6.22456 9.95954 6.28427 10.0174L6.79859 10.5317C6.9186 10.6574 6.9186 10.8632 6.79859 10.9889L6.28427 11.5032C6.2243 11.563 6.14314 11.5964 6.05855 11.5964C5.97394 11.5964 5.89279 11.563 5.83281 11.5032L5.32421 10.9889ZM5.62709 10.8975C5.5908 10.8611 5.57042 10.8117 5.57042 10.7604C5.57042 10.7089 5.5908 10.6596 5.62709 10.6232L5.92424 10.3204C5.94179 10.3025 5.9627 10.2884 5.98576 10.2788C6.00881 10.269 6.03356 10.2641 6.05855 10.2641C6.08353 10.2641 6.10828 10.269 6.13134 10.2788C6.15439 10.2884 6.1753 10.3025 6.19283 10.3204L6.49572 10.6232C6.57 10.7032 6.57 10.8232 6.49572 10.8975L6.19283 11.2004C6.1753 11.2181 6.15439 11.2323 6.13134 11.2419C6.10828 11.2516 6.08353 11.2565 6.05855 11.2565C6.03356 11.2565 6.00881 11.2516 5.98576 11.2419C5.9627 11.2323 5.94179 11.2181 5.92424 11.2004L5.62709 10.8975Z" fill="white"/>
<path fill-rule="evenodd" clip-rule="evenodd" d="M10.5192 13.4291C11.1255 13.4291 11.7069 13.1883 12.1356 12.7596C12.5643 12.3309 12.8051 11.7496 12.8051 11.1433C12.8051 10.537 12.5643 9.9556 12.1356 9.52691C11.7069 9.09822 11.1255 8.85742 10.5192 8.85742C9.91306 8.85742 9.33156 9.09822 8.90292 9.52691C8.47424 9.9556 8.2334 10.537 8.2334 11.1433C8.2334 11.7496 8.47424 12.3309 8.90292 12.7596C9.33156 13.1883 9.91306 13.4291 10.5192 13.4291ZM10.5192 12.2861C10.8223 12.2861 11.1131 12.1657 11.3274 11.9515C11.5418 11.737 11.6622 11.4464 11.6622 11.1433C11.6622 10.8402 11.5418 10.5495 11.3274 10.3351C11.1131 10.1208 10.8223 10.0004 10.5192 10.0004C10.2161 10.0004 9.92546 10.1208 9.71104 10.3351C9.49677 10.5495 9.37636 10.8402 9.37636 11.1433C9.37636 11.4464 9.49677 11.737 9.71104 11.9515C9.92546 12.1657 10.2161 12.2861 10.5192 12.2861Z" fill="white"/>
</svg>

<svg xmlns="http://www.w3.org/2000/svg" width="24" height="24" fill="none" viewBox="0 0 24 24">
    <path fill="#fff" fill-rule="evenodd" d="M6.89 7.383c.755.8 2.28 2.417 2.304 2.457l-.275.343-3.028-1.371-2.79-.149a.646.646 0 0 1-.473-1.034l2.051-2.726a.636.636 0 0 1 1.086.114zm-1.245.709q-.93-.097-1.857-.229a.22.22 0 0 1-.149-.091.28.28 0 0 1 .006-.326l.977-1.28a.474.474 0 0 1 .811.074l.623 1.229a.45.45 0 0 1 0 .383.42.42 0 0 1-.417.24zM4.233 7.52l1.075.126a.24.24 0 0 0 .24-.137.25.25 0 0 0 0-.229l-.366-.708a.274.274 0 0 0-.463-.04l-.571.743a.16.16 0 0 0 0 .188c.017.029.051.046.085.057" clip-rule="evenodd"/>
    <path fill="#fff" d="M3.782 14.744c.097-.115.383-.475.583-.743a.211.211 0 0 0-.148-.343L3.53 13.6a.24.24 0 0 0-.24.331l.28.755a.14.14 0 0 0 .131.091c.035 0 .057-.017.08-.04z"/>
    <path fill="#fff" fill-rule="evenodd" d="M4.896 12.71c.932-.195 3.772-1.087 3.818-1.087l.12.36-3.355 2.115-1.377 2a.549.549 0 0 1-.972-.114l-1.04-2.766a.554.554 0 0 1 .578-.755zm-.057 1.245c-.343.463-.84 1.08-1.006 1.274a.18.18 0 0 1-.137.069.235.235 0 0 1-.228-.155l-.486-1.314a.418.418 0 0 1 .423-.56l1.177.097a.366.366 0 0 1 .263.589z" clip-rule="evenodd"/>
    <path fill="#fff" d="M19.566 11.818c-.12.04-.486.171-.75.274a.183.183 0 0 0-.04.314l.464.343c.12.097.297.029.326-.12l.13-.674a.115.115 0 0 0-.056-.126.1.1 0 0 0-.075-.011"/>
    <path fill="#fff" fill-rule="evenodd" d="M17.862 12.784c-.754-.275-5.526-1.32-5.554-1.343l.068-.315 5.68.389 1.875-.823a.469.469 0 0 1 .646.526l-.458 2.463a.467.467 0 0 1-.754.285zm.589-.875 1.291-.468a.15.15 0 0 1 .126.017.21.21 0 0 1 .103.217l-.229 1.16a.35.35 0 0 1-.554.217l-.806-.6a.313.313 0 0 1-.061-.443.3.3 0 0 1 .13-.1m-5.902-3.571c.11-.124.192-.27.24-.429a.7.7 0 0 0 .017-.149V6.017c0-.222.08-.434.24-.588l.6-.434c.137-.132.309-.126.497-.126h1.315c.154-.006.302-.012.422.091l.658.566a.8.8 0 0 1 .274.6v1.617a.8.8 0 0 1-.069.326c-.08.189-.257.309-.434.417l-.166.114a1.2 1.2 0 0 1-.36.212.9.9 0 0 1-.325.046h-1.206c-.137 0-.275.005-.4.074l-2.012 1.257-.388-.434zm.829-2.223c0-.378.308-.686.685-.686h1.486c.377 0 .686.308.686.686V7.6a.69.69 0 0 1-.686.686h-1.486a.686.686 0 0 1-.686-.686zm2.285.743a.857.857 0 1 1-1.715 0 .857.857 0 0 1 1.715 0m-7.715 8.788c-.097.16-.195.332-.183.515l.006.04.205 1.377a.67.67 0 0 1-.131.497l-.309.4a.64.64 0 0 1-.411.24l-1.154.171a.63.63 0 0 1-.423-.085l-.589-.372a.63.63 0 0 1-.286-.445l-.188-1.28a.65.65 0 0 1 .125-.486l.355-.475a.63.63 0 0 1 .434-.251l.972-.114c.022 0 .045 0 .074-.012.16-.04.28-.16.394-.28l2.709-2.783.246.194-1.852 3.15zm-.572 1.886a.514.514 0 0 1-.434.583l-1.086.166a.514.514 0 0 1-.577-.44l-.166-1.103a.514.514 0 0 1 .435-.589l1.085-.16a.514.514 0 0 1 .578.434l.165 1.103zm-1.771-.303a.65.65 0 0 1 .543-.743.656.656 0 0 1 .188 1.297.65.65 0 0 1-.731-.554M9.919 6.875a1.43 1.43 0 1 0-.857.268l.834 2.229.446-.057zm-.829-.303a.857.857 0 1 0 0-1.715.857.857 0 0 0 0 1.715m.572-.857a.571.571 0 1 1-1.143 0 .571.571 0 0 1 1.143 0m.446 8.377a1.56 1.56 0 0 0-1.028 1.48 1.583 1.583 0 0 0 2.182 1.452 1.56 1.56 0 0 0 .96-1.452 1.58 1.58 0 0 0-1.256-1.543l-.15-1.434-.445-.063zm.543.48c-.554 0-1 .451-.994 1 0 .554.457 1 1.006 1 .554 0 1-.446.994-1 0-.549-.457-1-1.006-1m-.594.994a.571.571 0 1 1 1.142 0 .571.571 0 0 1-1.142 0" clip-rule="evenodd"/>
    <path fill="#fff" d="M12.234 3.429a.56.56 0 0 1-.56.571.58.58 0 0 1-.577-.571.568.568 0 1 1 1.137 0"/>
    <path fill="#fff" fill-rule="evenodd" d="M12.108 4.794a1.42 1.42 0 0 0 .994-1.365 1.44 1.44 0 0 0-1.985-1.32 1.42 1.42 0 0 0-.872 1.32c0 .611.395 1.131.937 1.337l-.663 4.806.435.12 1.165-4.898zm-.434-.508a.856.856 0 0 0 .857-.857.873.873 0 0 0-.869-.858.85.85 0 0 0-.851.858c0 .474.394.857.863.857" clip-rule="evenodd"/>
    <path fill="#fff" d="M20.235 16.853a.573.573 0 0 1 0-1.149.59.59 0 0 1 .571.583.565.565 0 0 1-.572.566"/>
    <path fill="#fff" fill-rule="evenodd" d="M18.52 16.246a1.74 1.74 0 0 0 1.714 1.738 1.69 1.69 0 0 0 1.714-1.698 1.737 1.737 0 0 0-1.714-1.731 1.7 1.7 0 0 0-1.166.44l-6.943-3.509-.274.457 6.686 4.103-.017.206zm.571.018c0 .628.514 1.142 1.143 1.154a1.133 1.133 0 0 0 1.143-1.132 1.16 1.16 0 0 0-1.143-1.154 1.13 1.13 0 0 0-1.143 1.132" clip-rule="evenodd"/>
    <path fill="#fff" d="M14.64 17.864c-.011.051-.302.68-.577 1.257a1.14 1.14 0 0 0 .155 1.229l1.05 1.257c.247.286.63.434 1.007.383l1.257-.172c.372-.051.686-.28.857-.611l.709-1.429a1.14 1.14 0 0 0-.114-1.205l-.972-1.24a1.12 1.12 0 0 0-1.006-.43l-1.011.12-4.372-4.942-.171.285zm3.56 1.543a1.617 1.617 0 0 1-1.605 1.629 1.62 1.62 0 0 1-1.612-1.623 1.617 1.617 0 0 1 1.612-1.63 1.616 1.616 0 0 1 1.606 1.63zm-.8 0a.81.81 0 0 1-.805.817.81.81 0 0 1-.806-.811c0-.457.36-.817.8-.817a.81.81 0 0 1 .806.817zm.4-9.537c.069.062.154.142.274.274a.64.64 0 0 0 .686.165l.903-.325a.66.66 0 0 0 .417-.469l.166-.737a.68.68 0 0 0-.154-.595l-.623-.685a.65.65 0 0 0-.68-.189l-.869.274a.68.68 0 0 0-.44.475l-.143.583-5.246 1.902.115.155 5.4-1.029c.057.074.114.126.194.2m1.006-1.864a.86.86 0 0 1 0 1.72.877.877 0 0 1-.857-.868c0-.475.383-.857.857-.852m.114.355a.475.475 0 0 1-.156.916.47.47 0 0 1-.444-.28.475.475 0 0 1 .413-.667.5.5 0 0 1 .181.03zM4.77 11.069l.743.88a.64.64 0 0 0 .897.08l.806-.686 1.657-.183.057-.457-1.64-.303-.743-.84a.63.63 0 0 0-.868-.074l-.823.657a.645.645 0 0 0-.086.926m.554-.08a.326.326 0 0 1 0-.457l.515-.515a.32.32 0 0 1 .445 0l.515.515c.12.125.12.331 0 .457l-.515.514a.32.32 0 0 1-.451 0zm.303-.091a.194.194 0 0 1 0-.275l.297-.303a.2.2 0 0 1 .135-.056.2.2 0 0 1 .134.056l.303.303c.074.08.074.2 0 .275l-.303.302a.19.19 0 0 1-.269 0z"/>
    <path fill="#fff" fill-rule="evenodd" d="M10.52 13.43a2.286 2.286 0 1 0 0-4.573 2.286 2.286 0 0 0 0 4.572m0-1.144a1.143 1.143 0 1 0 0-2.287 1.143 1.143 0 0 0 0 2.287" clip-rule="evenodd"/>
</svg>
